X:466
T: HaoHuar,xinwoli changchulai
N: C2084
O: China,Qinghai Minhe Mayeng
S: I, 241]
R: Shange, Mayengling]
M: 2/4
L: 1/16
K: Ab
f4e2e2 | f2abb2fa | f2e2f2fa | b2b2b4- | b6f2 |
b2bee2ef | cbbaafzf | b4b2e2 | e6f2 | e4z4 |
af2ef2e2 | b4b4 | b8- | b6f2 |
b2bee2ef | cbbcbcba | f2
zeb2bc | b2abb2fa | f4f3e | e4e4- | e6f2 | e4z4

@@@ Tune index: 7021
